!!!COM:	Tinctoris, Johannes
!!!CDT:	~1435///-1511//
!!!OPR:	Missa L'homme arm&eacute;
!!!ONM:	5
!!!OTL:	Agnus Dei
!!!AGN:	Mass; Agnus Dei
!!!SCT:	Tin1001e
!!!SCA:	Tin1001e
!!!voices:	4
!!!voices-OPR:	4
**kern	**kern	**kern	**kern
*staff4	*staff3	*staff2	*staff1
*Ivox	*Ivox	*Ivox	*Ivox
*I"Bassus	*I"Tenor	*I"Altus	*I"Discantus
*I'B	*I'T	*I'A	*I'D
*>[A,B,C]	*>[A,B,C]	*>[A,B,C]	*>[A,B,C]
*>A	*>A	*>A	*>A
*clefF4	*clefGv2	*clefGv2	*clefG2
*k[b-]	*k[b-]	*k[b-]	*k[b-]
*M3/1	*M3/1	*M3/1	*M3/1
*met(O)	*met(O)	*met(C.)	*met(O)
!!primary-mensuration: met(O)
!!section: Agnus Dei I
!!!OMD: Agnus Dei I
!!incipit: 3
=1-	=1-	=1-	=1-
*	*	*rscale:1/2	*
!	!	!LO:TX:Z=12:X=-40:t=Crescit in duplum	!
!	!	!LO:N:vis=0.	!
1GG	1.G	0.r	0.g
2.C/	.	.	.
.	1c	.	.
4D\	.	.	.
4E\	.	.	.
4F\	.	.	.
2G\	2B-\	.	.
=2	=2	=2-	=2
2.F\	2.A/	0.ryy	1.cc
8E\L	8G/L	.	.
8D\J	8F/J	.	.
2C/	4E/	.	.
.	4D/	.	.
2GG/	2G/	.	2b-\
1D	2A/	.	1a
.	4.F/	.	.
.	8E/	.	.
=3	=3	=3	=3
!	!	!LO:N:vis=0.	!
2E\	2G/	0.r	2.g/
1C	1c	.	.
.	.	.	4f/
.	.	.	2e/
2.G\	2B-\	.	1d
.	1G	.	.
4F\	.	.	.
2E\	.	.	2g/
=4	=4	=4-	=4
2.D\	1d	0.ryy	2f/
.	.	.	2.a/
4E\	.	.	.
2F\	2c\	.	.
.	.	.	4g/
2G\	2B-\	.	1g
1D	1A	.	.
.	.	.	2f#i/
=5	=5	=5	=5
2GG/	2.G/	0.r	1g
2.C/	.	.	.
.	2c\	.	.
.	.	.	2r
4BB-/	4d\	.	.
4C/	4e\	.	1g
4D\	4f\	.	.
2C/	2e\	.	.
2AA/	2c\	.	2a/
=6	=6	=6-	=6
0.GG	0.d	0.G	0.bn
=7	=7	=7	=7
2AA/	2.c\	0.c	2cc\
2FF/	.	.	1a
.	2A/	.	.
2.F\	.	.	.
.	4B-\	.	.
.	1c	.	4g/
4G\	.	.	4f/
2A\	.	.	2e/
2F\	2A/	.	[2a/
=8	=8	=8-	=8
1G	1r	1B-	2a/]
.	.	.	2g/
0D	3%2FV	0A	1a
.	3G/Z	.	.
.	3A/V	.	2r
.	3.F/	.	.
.	.	.	2a/
.	6E/Z	.	.
=9	=9	=9	=9
1GG	2G/	0G	2b-\
.	2.B-\	.	2.g/
2r	.	.	.
.	4A/	.	4f/
2.G\	2.B-\	.	2.d/
.	.	1d	.
4F\	4c\	.	4e/
[2D\	[2d\	.	4f/
.	.	.	4g/
=10	=10	=10-	=10
4D\]	4d\]	1d	2a/
4E\	4c\	.	.
4F\	2A/	.	2f/
*	*	*	*MM3/1
*	*	*	*met(3)
*	*	*	*rscale:3
!	!	!	!LO:TX:Z=16:t=[recte&colon; 3 over 1]
!!primary-mensuration: met(O)
4D\	.	.	.
0E	2r	0G	2g/
.	1G	.	6f/
.	.	.	6e/
.	.	.	6d/
.	.	.	3e/
.	.	.	2c#i/
.	2E/	.	.
.	.	.	6Bni/
*	*	*	*rscale:1
=11	=11	=11	=11
*	*	*	*M3/1
*	*	*	*met(O)
!!primary-mensuration: met(O)
2D\	2F/	1r	1d
2.BB-/	2D/	.	.
.	2.F/	1d	2r
4C/	.	.	.
4D\	.	.	2.f/
4E\	4G/	.	.
2F\	1A	1d	.
.	.	.	4g/
[2D\	.	.	[2a/
=12	=12	=12-	=12
4D\]	2r	1d	2a/]
8E\L	.	.	.
8F\J	.	.	.
2G\	2G/	.	2b-\
2.C/	4.E/	0c	2.cc\
.	8F/	.	.
.	4G/	.	.
2F\	2A/	.	2a/
8E\L	4B-\	.	8g/L
8D\J	.	.	8f/J
2C/	2c\	.	2e/
=13	=13	=13	=13
1G	[0.d	1B-	2d/
.	.	.	2g/
0D	.	0A	2.f/
.	.	.	4.a/
.	.	.	8g/
.	.	.	4a/
.	.	.	4f#i/
.	.	.	4e/
=14	=14	=14-	=14
1GG	1d]	0.G	0g
2r	1.B-	.	.
1GG	.	.	.
.	.	.	2d/
[2C/	2c\	.	[2e/
=15	=15	=15	=15
4C/]	1G	0.r	4e/]
4BB-/	.	.	4d/
4C/	.	.	4c/
4D\	.	.	8B-/L
.	.	.	8A/J
4.E\	2r	.	2G/
8F\	.	.	.
2.G\	2G/	.	2B-/
.	1D	.	1A
4F#i\	.	.	.
4F#i\	.	.	.
4E\	.	.	.
=16	=16	=16-	=16
2G\	2d\	0.g	2G/
2C/	2.e\	.	4r
.	.	.	2c/
4r	.	.	.
4GG/	4d\	.	4d/
4C/	4c\	.	4e/
4D\	8B-/L	.	4f/
.	8A/J	.	.
4.E\	2G/	.	2g/
8F\	.	.	.
2G\	2B-\	.	[2d/
=17	=17	=17	=17
2r	1A	1f	4d/]
.	.	.	8c/L
.	.	.	8B-/J
2A\	.	.	2c/
2B-\	2G/	1g	1d
2G\	2.d\	.	.
1A	.	1e	1r
.	8c#i\L	.	.
.	8Bni\J	.	.
.	2c#i\	.	.
=18	=18	=18-	=18
2D\	2.d\	0.d	2A/
2G\	.	.	2B-/
.	4e\	.	.
2.F\	2f\	.	2A/
.	4d\	.	2.d/
2D\	2f\	.	.
4C/	4e\	.	4e/
4D\	4d\	.	4f/
4E\	8c\L	.	4g/
.	8B-\J	.	.
=19	=19	=19	=19
!	!	!LO:N:vis=0.	!
2F\	2A/	[y0.d	2a/
2.G\	2.G/	.	2.b-\
4D\	4F/	.	4a/
2F\	2A/	.	1a
1G	1B-	.	.
.	.	.	2g/
=20	=20	=20-	=20
2.D\	2A/	0.d]yy	4.f/
.	.	.	8g/
.	2.d\	.	4a/
2GG/	.	.	2b-\
4AA/	4c\	.	4a/
4BB-/	2B-\	.	2.g/
4C/	.	.	.
1D	1A	.	.
.	.	.	8f#i/L
.	.	.	8e/J
.	.	.	2f#i/
=21	=21	=21	=21
0.GGl	0.Gl	0.dl	0.gl
!!LO:LB:i:g=z
*	*	*rscale:1	*rscale:1
=22||	=22||	=22||	=22||
*>B	*>B	*>B	*>B
*clefF4	*clefGv2	*clefGv2	*clefG2
*k[b-]	*k[b-]	*k[b-]	*k[b-]
*M2/1	*M2/1	*M2/1	*M2/1
*met(C|)	*met(C|)	*met(C|)	*met(C|)
!!section: Agnus Dei II
!!!OMD: Agnus Dei II
0r	0c	0r	0g
=23	=23	=23	=23
0r	1.c	[0g	1.e
.	4B-\	.	4d/
.	4A/	.	4c/
=24	=24	=24	=24
0r	2c\	0g]	2e/
.	1B-	.	1d
.	4A/	.	4c/
.	4B-\	.	4d/
=25	=25	=25	=25
0r	1.c	1.g	1.e
.	2d\	4f\	2f/
.	.	4e\	.
=26	=26	=26	=26
0r	2B-\	2g\	2d/
.	4A/	1f	4c/
.	4G/	.	4B-/
.	1A	.	1c
.	.	4e\	.
.	.	4f\	.
=27	=27	=27	=27
0r	2.G/	1g	1d
.	4A/	.	.
.	1B-	1r	1G
=28	=28	=28	=28
0r	1c	1g	1r
.	1r	1c	1g
=29	=29	=29	=29
0r	1.c	1.A	2a/
.	.	.	1cc
.	2d\	2B-\	2b-\
=30	=30	=30	=30
0r	1e	1c	2g/
.	.	.	2.a/
.	2f\	2d\	.
.	.	.	4g/
.	[2d\	[2f\	4f/
.	.	.	4e/
=31	=31	=31	=31
0r	4d\]	4f\]	2d/
.	4c\	4e\	.
.	4B-\	4d\	2.f/
.	4A/	4c\	.
.	2d\	2B-\	.
.	.	.	4e/
.	[2B-\	[2d\	4d/
.	.	.	4c/
=32	=32	=32	=32
0r	4B-\]	4d\]	2B-/
.	4A/	4c\	.
.	1G	4B-\	2.b-\
.	.	4A/	.
.	.	2G/	.
.	.	.	8a/L
.	.	.	8g/J
.	[2F/	[2c\	[2a/
=33	=33	=33	=33
0r	2F/]	2c\]	4a/]
.	.	.	4g/
.	2G/	2B-\	1g
.	1D	1A	.
.	.	.	2f#i/
=34	=34	=34	=34
0r	1r	0G	1g
.	1d	.	1r
=35	=35	=35	=35
0r	0e	1r	1c
.	.	1c	1g
=36	=36	=36	=36
0r	1e	1g	1r
.	2.d\	1r	1G
.	4c\	.	.
=37	=37	=37	=37
0r	2B-\	1G	1d
.	2.d\	.	.
.	.	1d	2B-/
.	4e\	.	.
.	2f\	.	[2d/
=38	=38	=38	=38
0r	1d	2B-\	4d/]
.	.	.	4e/
.	.	2.d\	1f
.	2B-\	.	.
.	.	4e\	.
.	[2B-\	2f\	2B-/
=39	=39	=39	=39
0r	4B-\]	2.B-\	2f/
.	4A/	.	.
.	2G/	.	2g/
.	.	4c\	.
.	1B-	1d	2f/
.	.	.	2b-\
=40	=40	=40	=40
0r	2r	2e\	2cc\
.	2B-\	2d\	1b-
.	1F	1c	.
.	.	.	2a/
=41	=41	=41	=41
0r	2G/	1B-	1b-
.	2.d\	.	.
.	.	1G	1r
.	4c\	.	.
.	4B-\	.	.
.	4A/	.	.
=42	=42	=42	=42
0r	2G/	0r	1.b-
.	1d	.	.
.	[2c\	.	[2a/
=43	=43	=43	=43
0r	4c\]	0r	4a/]
.	4B-\	.	4g/
.	2G/	.	1g
.	1A	.	.
.	.	.	2f#i/
=44	=44	=44	=44
0r	1G	1.B-	2g/
.	.	.	1d
.	1r	.	.
.	.	[2A/	[2c/
=45	=45	=45	=45
0r	0r	4A/]	4c/]
.	.	4G/	4d/
.	.	1G	2B-/
.	.	.	1A
.	.	2F#i/	.
=46	=46	=46	=46
0r	1.B-	2G/	1G
.	.	1d	.
.	.	.	1r
.	[2A/	[2c\	.
=47	=47	=47	=47
0r	4A/]	4c\]	0r
.	4G/	4d\	.
.	1G	2B-\	.
.	.	1A	.
.	2F#i/	.	.
=48	=48	=48	=48
0r	1G	1G	0r
.	1D	2r	.
.	.	[2d\	.
=49	=49	=49	=49
0r	2r	2d\]	0r
.	2G/	2e\	.
.	2A/	2f\	.
.	2B-\	[2g\	.
=50	=50	=50	=50
0r	1c	2g\]	0r
.	.	1c	.
.	1F	.	.
.	.	2d\	.
=51	=51	=51	=51
0r	2G/	2e\	0r
.	2A/	1f	.
.	2B-\	.	.
.	[2G/	[2B-\	.
=52	=52	=52	=52
0r	4G/]	2B-\]	0r
.	4F/	.	.
.	2E/	2c\	.
.	2D/	[1d	.
.	4E/	.	.
.	4F/	.	.
=53	=53	=53	=53
0r	2.G/	2d\]	0r
.	.	4e\	.
.	4F/	4f\	.
.	4E/	2.g\	.
.	4D/	.	.
.	[2E/	.	.
.	.	4f\	.
=54	=54	=54	=54
0r	2E/]	4e\	0r
.	.	4d\	.
.	2C/	1e	.
.	1G	.	.
.	.	[2d\	.
=55	=55	=55	=55
0r	2F/	4d\]	0r
.	.	4c\	.
.	2E/	1c	.
.	1D	.	.
.	.	2Bni\	.
=56	=56	=56	=56
0r	[0C	0c	[0g
=57	=57	=57	=57
0r	1C]	1r	1g]
.	1r	[1g	[1e
=58	=58	=58	=58
0r	0r	2g\]	2e/]
.	.	1e	2c/
.	.	.	1c
.	.	2c\	.
=59	=59	=59	=59
0r	0r	1c	2r
.	.	.	1g
.	.	2r	.
.	.	2d\	2f/
=60	=60	=60	=60
0r	0r	2e\	2g/
.	.	2g\	2b-\
.	.	2f\	2a/
.	.	2e\	[2g/
=61	=61	=61	=61
0r	0r	1c	2g/]
.	.	.	1cc
.	.	1d	.
.	.	.	2b-\
=62	=62	=62	=62
0r	0r	2c\	1cc
.	.	2.f\	.
.	.	.	2a/
.	.	4e\	.
.	.	[2d\	[2b-\
=63	=63	=63	=63
0r	0r	2d\]	2b-\]
.	.	1g	2g/
.	.	.	1a
.	.	2f#i\	.
=64	=64	=64	=64
0r	0r	1g	1g
.	.	2f\	2r
.	.	[2e\	[2c/
=65	=65	=65	=65
0r	0r	4e\]	2c/]
.	.	4d\	.
.	.	2c\	1g
.	.	1B-	.
.	.	.	2f/
=66	=66	=66	=66
0r	0r	2c\	2e/
.	.	4B-\	4d/
.	.	4c\	4c/
.	.	2d\	2B-/
.	.	[2G/	[2d/
=67	=67	=67	=67
0r	0r	4G/]	4d/]
.	.	4A/	4c/
.	.	4B-\	4B-/
.	.	4c\	4A/
.	.	2d\	2.G/
.	.	4e\	.
.	.	4f\	4A/
=68	=68	=68	=68
0r	0r	2g\	2G/
.	.	2e\	1c
.	.	1d	.
.	.	.	2Bni/
=69	=69	=69	=69
0r	1r	2r	1c
.	.	2c\	.
.	2.C/	2.e\	1r
.	4D/	4f\	.
=70	=70	=70	=70
0r	2E/	2g\	2.c/
.	2F/	2a\	.
.	.	.	4d/
.	2G/	2g\	2e/
.	2A/	2c\	2f/
=71	=71	=71	=71
0r	2G/	2d\	2g/
.	2.c\	2e\	2a/
.	.	2.c\	2g/
.	4B-\	.	.
.	4A/	.	[2cc\
.	4G/	4B-\	.
=72	=72	=72	=72
0r	2.F/	4A/	4cc\]
.	.	4G/	4b-\
.	.	2.d\	4a/
.	4E/	.	4g/
.	2G/	.	2b-\
.	.	4B-\	.
.	2A/	2c\	[2a/
=73	=73	=73	=73
0r	2D/	2d\	4a/]
.	.	.	4g/
.	2E/	2G/	1g
.	1D	1A	.
.	.	.	2f#i/
=74	=74	=74	=74
*	*^	*	*
0r	0G\l	0d/l	0Gl	0gl
*	*v	*v	*	*
!!LO:LB:i:g=z
=75||.	=75||.	=75||.	=75||
*>C	*>C	*>C	*>C
*clefF4	*clefGv2	*clefGv2	*clefG2
*k[b-]	*k[b-]	*k[b-]	*k[b-]
*M2/1	*M2/1	*M2/1	*M2/1
*met(O3/2)	*met(O3/2)	*met(C.3/8)	*met(O3/2)
!!section: Agnus Dei III
!!!OMD: Agnus Dei III
!!primary-mensuration: met(O3/2)
!!!LO:TX:Z=6:X=-40:t=O3/2	!LO:TX:Z=6:X=-40:t=O3/2	!LO:TX:Z=6:X=-40:t=O3/8	!LO:TX:Z=6:X=-40:t=O3/2
!LO:TX:Z=6:X=-40:t=O3/2	!	!	!
!	!LO:TX:Z=6:X=-40:t=O3/2	!	!
!	!	!	!LO:TX:Z=6:X=-40:t=O3/2
!! Following line hangs muse2ps:
*	*	*rscale:1/4	*
!	!	!LO:N:vis=0.	!
1.G	1.B-	1.r	0g
!	!	!LO:TX:Z=6:X=-90:t=C.3/8	!
4F\	4A/	1.ryy	.
4E\	4G/	.	.
1D	1A	.	1f
=76	=76	=76-	=76
1G	1B-	0.ryy	1.g
0E	0c	.	.
.	.	.	2f/
.	.	.	2e/
.	.	.	2d/
=77	=77	=77-	=77
1D	1d	0.ryy	1f
2E\	1G	.	2e/
2.C/	.	.	2.e/
.	1A	.	.
4BB-/	.	.	4d/
4AA/	.	.	4c/
4GG/	.	.	4B-/
=78	=78	=78-	=78
1BB-	1D	0.ryy	1.d
0AA	0E	.	.
.	.	.	4c#i/
.	.	.	4Bni/
.	.	.	1c#i
=79	=79	=79	=79
!	!	!LO:N:vis=0.	!
1r	0.D	0.r	0d
0A	.	.	.
.	.	.	1r
=80	=80	=80-	=80
1B-	1r	0.ryy	1.d
1.A	1.D	.	.
.	.	.	2e/
.	.	.	2f/
2G\	2E/	.	2g/
=81	=81	=81-	=81
2F\	2F/	0.ryy	2a/
2E\	2G/	.	2g/
2F\	2A/	.	1.cc
2G\	2G/	.	.
1A	1c	.	.
.	.	.	4b-\
.	.	.	4a/
=82	=82	=82-	=82
1.G	0d	0.ryy	1.b-
2D\	.	.	1.a
1F	1c	.	.
=83	=83	=83	=83
!	!	!LO:N:vis=1.	!
1G	1B-	0.r	1.g
0D	0A	.	.
.	.	.	2f#i/
.	.	.	2f#i/
.	.	.	4e/
.	.	.	4f#i/
=84	=84	=84-	=84
1.E	1.G	0.ryy	0.g
2F\	2A/	.	.
1G	1B-	.	.
=85	=85	=85-	=85
!	!	!LO:N:vis=1	!
0C	0c	[y0.g	1r
.	.	.	2.g/
.	.	.	4a/
1r	1G	.	1b-
=86	=86	=86-	=86
0.r	1c	1g]yy	1cc
.	0d	0f	1.b-
.	.	.	4a/
.	.	.	4b-\
=87	=87	=87	=87
0.C	0.c	0g	0cc
!	!	!LO:N:vis=1	!
.	.	[y1e	1r
=88	=88	=88-	=88
1C	0.r	0.e]yy	1.g
2r	.	.	.
2C/	.	.	2e/
2.E\	.	.	2.g/
4F\	.	.	4a/
=89	=89	=89-	=89
!	!	!LO:N:vis=1.	!
1G	1B-	[y0.d	0b-
1.B-	1.G	.	.
.	.	.	[1g
2A\	2A/	.	.
=90	=90	=90-	=90
0G	1.B-	0.d]yy	2g/]
.	.	.	2a/
.	.	.	2g/
.	4A/	.	4f#i/
.	4G/	.	4e/
1D	1A	.	1f#i
=.91	=91	=91	=91
1r	1G	0r	1g
1.G	2r	.	1.d
.	1B-	.	.
!	!	!LO:N:vis=2	!
.	.	1r	.
2A\	2A/	.	2c/
=92	=92	=92-	=92
1F	2c\	1ryy	1A
.	2A/	.	.
0G	[0d	0g	0B-
=93	=93	=93-	=93
!	!	!LO:N:vis=1	!
1D	1d]	[y0.a	1.A
[0F	2.c\	.	.
.	.	.	2B-/
.	4B-\	.	.
.	1A	.	1c
=94	=94	=94-	=94
1F]	2r	1a]yy	1d
.	2F/	.	.
0E	1G	0g	1.e
.	2.c\	.	.
.	.	.	4f/
.	4B-\	.	4g/
=95	=95	=95	=95
0D	2d\	0f	1a
.	2A/	.	.
.	1B-	.	1d
!	!	!LO:N:vis=1	!
[1C	2c\	[y1e	2e/
.	2B-\	.	[2g/
=96	=96	=96-	=96
0C]	1.G	0.e]yy	2g/]
.	.	.	2f/
.	.	.	2e/
.	4F/	.	2d/
.	4G/	.	.
1AA	1A	.	2.c#i/
.	.	.	4Bni/
=97	=97	=97-	=97
!	!	!LO:N:vis=1.	!
1BB-	1F	[y0.d	0.d
0GG	2r	.	.
.	1G	.	.
.	2A/	.	.
=98	=98	=98-	=98
1.G	1.B-	0.d]yy	0.r
4F#i\	4A/	.	.
4E\	4G/	.	.
1F#i	1A	.	.
=99	=99	=99	=99
[0.G	1G	0r	[0.d
.	[0B-	.	.
!	!	!LO:N:vis=2	!
.	.	1r	.
=100	=100	=100-	=100
1G]	0B-]	1ryy	0d]
1r	.	[0G	.
[1E	[1G	.	[1g
=101	=101	=101-	=101
2E\]	2G/]	0G]	2g/]
2F\	2A/	.	2f/
1G	1B-	.	1d
!	!	!LO:N:vis=1	!
[1C	1G	[y1c	[1e
=102	=102	=102-	=102
2C/]	1.c	0.c]yy	2e/]
2D\	.	.	2f/
1E	.	.	1g
.	2B-\	.	.
1F	1A	.	1a
=103	=103	=103	=103
0G	1B-	0B-	1d
.	1G	.	1g
!	!	!LO:N:vis=1	!
1D	2A/	[y1A	2.f/
.	[2D/	.	.
.	.	.	4g/
=104	=104	=104-	=104
2.F\	4D/]	0.A]yy	1.a
.	4E/	.	.
.	1F	.	.
4E\	.	.	.
1D	.	.	.
.	2G/	.	2b-\
1r	2A/	.	1cc
.	2F/	.	.
=105	=105	=105-	=105
!	!	!LO:N:vis=1.	!
1.GG	1.G	[y0.G	1b-
.	.	.	1.g
1C	1E	.	.
2D\	2D/	.	2f/
=106	=106	=106-	=106
2E\	1C	0.G]yy	1e
2C/	.	.	.
1.G	1r	.	1.d
.	1r	.	.
2A\	.	.	2c/
=107	=107	=107	=107
1.G	1G	0r	1B-
.	0D	.	0A
2F#i\	.	.	.
!	!	!LO:N:vis=2	!
2F#i\	.	1r	.
4E\	.	.	.
4F#i\	.	.	.
=108	=108	=108-	=108
1G	0d	1ryy	0.G
1r	.	0d	.
1G	[1G	.	.
=109	=109	=109-	=109
!	!	!LO:N:vis=1.	!
0B-	1G]	[y0.G	0.d
.	0B-	.	.
[1d	.	.	.
=110	=110	=110-	=110
1d]	0d	0.G]yy	0G
[0G	.	.	.
.	[1B-	.	[1d
=111	=111	=111	=111
!	!	!LO:N:vis=1	!
1G]	1B-]	[y0.d	2d/]
.	.	.	2e/
1.D	0A	.	2f/
.	.	.	2g/
.	.	.	[1a
2E\	.	.	.
=112	=112	=112-	=112
1F	1.D	1d]yy	1a]
2BB-/	.	0d	1.f
1D	1F	.	.
2E\	2E/	.	2g/
=113	=113	=113-	=113
1F	1D	0d	1a
1G	1r	.	2b-\
.	.	.	4a/
.	.	.	4b-\
!	!	!LO:N:vis=1	!
1A	1F	[y1c	1cc
=114	=114	=114-	=114
1.F	1.A	0.c]yy	1.a
4E\	2B-\	.	4g/
4D\	.	.	4f/
1C	1c	.	1e
=115	=115	=115	=115
0G	1.d	0B-	1d
.	.	.	2g/
.	2e\	.	4f/
.	.	.	4g/
!	!	!LO:N:vis=1	!
1F	[1f	[y1A	1a
=116	=116	=116-	=116
2.D\	2f\]	0.A]yy	2f/
.	2e\	.	2.a/
4C/	.	.	.
0D	2.d\	.	.
.	.	.	4g/
.	.	.	4f#i/
.	4c\	.	4e/
.	1d	.	1f#i
=117	=117	=117-	=117
[0.GGl	1B-	[0.Gl	[0.gl
.	2r	.	.
.	2G/	.	.
.	2.B-\	.	.
.	4c\	.	.
=118	=118	=118-	=118
0.GG]	0.dl	0.G]	0.g]
*	*	*rscale:1	*
==	==	==	==
*-	*-	*-	*-
!!!RDF**kern: l=long note in original notation
!!!RDF**kern: i=editorial accidental
!!!RDF**kern: V=start of tuplet marker
!!!RDF**kern: Z=end of tuplet marker
!!!ENC:	Melin
!!!END:	2014/06/10/
!!!EED:	Jesse Rodin
!!!EEV:	2014/06/12/
!!!ONB:	Translated from MusicXML and edited on 2014/06/12/ by Craig Sapp
!!muse2ps: T^@{OPR}^u^@{ONM}{. }@{OTL}^C^@{COM}^i2I150v105,85,85,150c140
